!!!OTL: Besenbinders Tochter (3-41), S. 124
!!!id: P1013
**kern
*clefG2
*k[b-]
*F:
{8c
=1
8.f
16g
8a
8b-
=2
4cc
8cc}
=3
{8cc
=4
4dd
8ff
8dd
=5
4cc}
8r
=6
{8cc
=7
8.b-
16b-
8cc
8b-
=8
4a
8a}
=9
{8f
=10
8g
8a
8.b-
16g
=11
4f}
8r
==
*-
!!!minrhy: 16
!!!meters: 2/4 ]  ZZ[4
!!!cut: Besenbinders Tochter (3-41), S. 124
!!!reg: Lothringen
!!!trd: PINCK, Louis: Verklingende Weisen, Bd3, Metz 1933
!!!rhy1: X_  X_.XX_X_  X__X_
!!!rhy2: X_  X__X_X_  X__0_
!!!key: P1013  16  F 2/4 ]  ZZ[4
!!!mod: SECHSTONSKALA DUR ?]  AMBITUS[11
!!!kad: 5531
!!!akz: 15_65_43_21_
!!!fot: 'a__b__c__bs'
!!!for: 'a__b__a__c__
!!!fok: '/__^__\__^__
!! PHRAS[AUFTAKTIG]
!!!fkt: Beruf, Liebe
!! LOTH VKL
!! PR[43] 2K[0] 2G[14] 3K[0] 3G[7] 4A[0] 4Ü[0] 5A[7] 6K[0] 6G[0]
!! 7K[0] 7G[0] 8A[0] MEHR[0] SI[29] ABS[28] SR[14] SP[14]
!! ST[8] 2k[0] 2g[7] 3k[7] 3g[14] 4d[0] 4ü[0] 5d[0] 6k[0] 6g[0]
!! 7k[0] 7g[0] 8d[0] mehr[0] si[29] dm[0] sr[7] sp[21]
!! 1F[20] 2F[70] 3F[7] 4F[3] LF[0] 2P[0] 3P[0] 4P[0] TRI[0] DF[4] AB[30]
!! TF[0] U3K[0] U3[0] U4[0] U4Ü[0] U5[0] U6K[0] U6[0] U7K[0] U7[0]
!! N1[41] N2K[0] N2[10] N3K[0] N3[28] N4[0] N4Ü[0] N5[21] N6K[0] N6[0]
!!!n7k: 0] N7[0] O1[0] O2K[0] O2[0] O3K[0] O3[0] HÖ[0
